assets/icons/24px/stroke/arrow-circle-forward-twenty-24px.svg

<svg width="24" height="24" viewBox="0 0 24 24" fill="none" xmlns="http://www.w3.org/2000/svg">
<path fill-rule="evenodd" clip-rule="evenodd" d="M16.1135 2.30587C16.4969 1.90831 17.1299 1.89679 17.5275 2.28015L20.1941 4.85152C20.3896 5.03999 20.5 5.29984 20.5 5.57136C20.5 5.84288 20.3896 6.10273 20.1941 6.2912L17.5275 8.86271C17.13 9.24608 16.4969 9.23458 16.1135 8.83703C15.7302 8.43948 15.7417 7.80642 16.1392 7.42305L17.0224 6.57137L12.5 6.57136C8.56459 6.57136 5.5 9.24909 5.5 13.2857C5.5 17.3223 8.56459 20 12.5 20C16.2946 20 18.8778 17.0681 18.8778 13.2857C18.8778 12.7334 19.3255 12.2857 19.8778 12.2857C20.4301 12.2857 20.8778 12.7334 20.8778 13.2857C20.8778 18.0243 17.542 22 12.5 22C7.59886 22 3.5 18.5607 3.5 13.2857C3.5 8.01062 7.59886 4.57136 12.5 4.57136L17.0223 4.57137L16.1392 3.71985C15.7417 3.33649 15.7301 2.70343 16.1135 2.30587Z" fill="white"/>
<path fill-rule="evenodd" clip-rule="evenodd" d="M14.3146 11.3718C14.1283 11.7154 14 12.3557 14 13.5C14 14.6443 14.1283 15.2846 14.3146 15.6282C14.3999 15.7857 14.4906 15.8675 14.5804 15.9157C14.6749 15.9665 14.806 16 15 16C15.1816 16 15.3083 15.9637 15.4029 15.9081C15.4963 15.8531 15.5926 15.7594 15.6823 15.5886C15.8732 15.2248 16 14.5777 16 13.5C16 12.4223 15.8732 11.7752 15.6823 11.4114C15.5926 11.2406 15.4963 11.1469 15.4029 11.0919C15.3083 11.0363 15.1816 11 15 11C14.806 11 14.6749 11.0335 14.5804 11.0843C14.4906 11.1325 14.3999 11.2143 14.3146 11.3718ZM14.1071 10.2033C14.3876 10.0526 14.694 10 15 10C15.3184 10 15.6292 10.065 15.9096 10.2298C16.1912 10.3953 16.4074 10.6411 16.5677 10.9466C16.8768 11.5355 17 12.3884 17 13.5C17 14.6116 16.8768 15.4645 16.5677 16.0533C16.4074 16.3589 16.1912 16.6047 15.9096 16.7702C15.6292 16.935 15.3184 17 15 17C14.694 17 14.3876 16.9474 14.1071 16.7967C13.8219 16.6434 13.6001 16.4085 13.4354 16.1048C13.1217 15.5261 13 14.6664 13 13.5C13 12.3336 13.1217 11.4739 13.4354 10.8952C13.6001 10.5915 13.8219 10.3566 14.1071 10.2033Z" fill="white"/>
<path fill-rule="evenodd" clip-rule="evenodd" d="M11.1546 13.6946C11.1546 13.6946 11.1546 13.6946 11.1546 13.6946L9.48094 15.9999L11.5 15.9997C11.7761 15.9997 12 16.2236 12 16.4997C12 16.7758 11.7762 16.9997 11.5 16.9997L8.50004 17C8.31204 17 8.13993 16.8945 8.05455 16.7271C7.96916 16.5596 7.98494 16.3583 8.09539 16.2062L10.3454 13.107L10.3454 13.107C10.8622 12.3952 10.922 11.9122 10.8597 11.6335C10.7999 11.366 10.6008 11.1667 10.306 11.0652C10.0027 10.9607 9.65583 10.984 9.4029 11.1186C9.1757 11.2395 9.00005 11.4593 9.00005 11.8514C9.00005 12.1276 8.77619 12.3514 8.50005 12.3514C8.22391 12.3514 8.00005 12.1276 8.00005 11.8514C8.00005 11.0814 8.38689 10.5265 8.93311 10.2358C9.45361 9.95878 10.0911 9.93358 10.6315 10.1196C11.1805 10.3086 11.6845 10.7388 11.8356 11.4155C11.9843 12.081 11.7628 12.8569 11.1546 13.6946Z" fill="white"/>
</svg>

<svg width="24" height="24" fill="none" xmlns="http://www.w3.org/2000/svg"><path fill-rule="evenodd" clip-rule="evenodd" d="M16.113 2.306a1 1 0 0 1 1.415-.026l2.666 2.572a1 1 0 0 1 0 1.44l-2.666 2.57a1 1 0 0 1-1.389-1.439l.883-.852H12.5c-3.935 0-7 2.678-7 6.715 0 4.036 3.065 6.714 7 6.714 3.795 0 6.378-2.932 6.378-6.714a1 1 0 1 1 2 0c0 4.738-3.336 8.714-8.378 8.714-4.901 0-9-3.44-9-8.714 0-5.275 4.099-8.715 9-8.715h4.522l-.883-.851a1 1 0 0 1-.026-1.414z" fill="#fff"/><path fill-rule="evenodd" clip-rule="evenodd" d="M14.315 11.372c-.187.343-.315.984-.315 2.128 0 1.144.128 1.785.315 2.128a.66.66 0 0 0 .265.288c.095.05.226.084.42.084a.775.775 0 0 0 .403-.092.758.758 0 0 0 .28-.32c.19-.363.317-1.01.317-2.088s-.127-1.725-.318-2.089a.758.758 0 0 0-.28-.32A.775.775 0 0 0 15 11a.873.873 0 0 0-.42.084.66.66 0 0 0-.265.288zm-.208-1.169c.28-.15.587-.203.893-.203.318 0 .63.065.91.23.281.165.497.411.658.717.309.589.432 1.441.432 2.553 0 1.112-.123 1.964-.432 2.553-.16.306-.377.552-.658.717-.28.165-.592.23-.91.23a1.86 1.86 0 0 1-.893-.203 1.656 1.656 0 0 1-.672-.692C13.122 15.526 13 14.666 13 13.5s.122-2.026.435-2.605c.165-.303.387-.538.672-.692zm-2.952 3.492L9.48 16H11.5a.5.5 0 0 1 0 1h-3a.5.5 0 0 1-.405-.794l2.25-3.099c.517-.712.577-1.195.515-1.473-.06-.268-.26-.467-.554-.569a1.173 1.173 0 0 0-.903.054c-.227.12-.403.34-.403.732a.5.5 0 1 1-1 0c0-.77.387-1.325.933-1.615.52-.277 1.158-.302 1.699-.116.549.189 1.053.619 1.204 1.296.148.665-.073 1.44-.681 2.279z" fill="#fff"/></svg>
